X:1
T:Title
%%score { ( 1 3 ) | 2 }
L:1/8
M:4/4
K:Eb
V:1 treble nm="Grand Piano"
V:3 treble 
V:2 bass 
V:1
 z4 z2[Q:1/4=100] [EG]>[FA] | [GB]>[GB] [GB]>[GB] [GB]2 [Ac]>[Ad] | %2
 [Ge]>[GB] [GB]>[GB] [GB]2 [GB]2 | [Ac]2 [Ac]2 [ce]2 [Bd][Ac] |[M:3/4] [GB]6 |[M:1/4] [EG]>[FA] | %6
[M:4/4] [GB]>[GB] [GB]>[GB] [GB]2 [EG]>[GB] |[M:9/8] c>cc- c/d/ e2- ee>e | %8
[M:4/4] d2 B2 [Ac]2 [Fd]2 |[M:3/4] [Ge]6 |[M:1/4] [GB]2 |[M:4/4] [GB]4 z2 [Ge]2 | [GB]4 z4 | %13
 [Ac]2 [Ac]2 [ce]2 [Bd][Ac] |[M:3/4] [GB]6 |[M:1/4] [EG]>[FA] | %16
[M:4/4] [GB]>[GB] [GB]>[GB] [GB]2 [EG]>[GB] |[M:9/8] c>cc- c/d/ e2- ee>e | %18
[M:4/4] d2 B2 [Ac]2 [Fd]2 |[M:7/4] [Ge]6 z2 z2 z4 |] %20
V:2
 z4 z2 [E,B,]2 | [E,E]>[E,E] [E,E]>[E,E] [E,E]2 [E,C]>[E,C] | %2
 [E,B,]>[E,B,] [E,E]>[E,E] [E,E]2 [E,E]2 | [A,E]2 [A,E]2 [A,E]2 [A,E]2 |[M:3/4] [E,E]6 | %5
[M:1/4] [E,B,]>[E,B,] |[M:4/4] [E,E]>[E,E] [E,E]>[E,E] [E,E]2 [E,B,]>[E,E] | %7
[M:9/8][K:treble] [A,EA]>[A,EA][A,EA]- [A,EA]/[A,EA]/ [A,CA]2- [A,CA][A,CA]>[A,CA] | %8
[M:4/4] [B,F]2 [B,G]2[K:bass] [B,,B,]2 [B,,B,]2 |[M:3/4] [E,B,]6 |[M:1/4] [E,E]>[E,E] | %11
[M:4/4] [E,E]>E, E,>E, [E,E]2 [E,B,]>E, | E,>E, E,>E, [E,E]2 [E,E]>[E,E] | %13
 [A,E]2 [A,E]2 [A,E]2 [A,E]2 |[M:3/4] [E,E]6 |[M:1/4] [E,B,]>[E,B,] | %16
[M:4/4] [E,E]>[E,E] [E,E]>[E,E] [E,E]2 [E,B,]>[E,E] | %17
[M:9/8][K:treble] [A,EA]>[A,EA][A,EA]- [A,EA]/[A,EA]/ [A,CA]2- [A,CA][A,CA]>[A,CA] | %18
[M:4/4] [B,F]2 [B,G]2[K:bass] [B,,B,]2 [B,,B,]2 |[M:7/4] [E,B,]6 z2 z2 z4 |] %20
V:3
 x8 | x8 | x8 | x8 |[M:3/4] x6 |[M:1/4] x2 |[M:4/4] x8 |[M:9/8] x9 |[M:4/4] x8 |[M:3/4] x6 | %10
[M:1/4] x2 |[M:4/4] z z/ E/ E>E G2 z z/ B,/ | E>E E>E G2 [GB]>[GB] | x8 |[M:3/4] x6 |[M:1/4] x2 | %16
[M:4/4] x8 |[M:9/8] x9 |[M:4/4] x8 |[M:7/4] x14 |] %20

